libs/ui/packages/crypto-icons/src/svg/ELF.svg

<svg width="24" height="24" viewBox="0 0 24 24" fill="none">
<path fill-rule="evenodd" clip-rule="evenodd" d="M19.5 11.9714C19.4992 13.7234 18.1425 15.0899 16.4085 15.0846C14.7105 15.0794 13.332 13.6754 13.341 11.9601C13.35 10.2456 14.7435 8.84763 16.4325 8.85888C18.1567 8.87013 19.5007 10.2344 19.5 11.9714ZM6.81748 17.9399C6.51779 17.9401 6.22103 17.8808 5.94442 17.7655C5.66781 17.6501 5.41685 17.481 5.20609 17.268C4.99533 17.0549 4.82896 16.8021 4.71663 16.5243C4.60431 16.2464 4.54826 15.9491 4.55173 15.6494C4.55548 14.3699 5.55598 13.3356 6.81373 13.3649C7.17523 13.3731 7.53823 13.5081 7.89073 13.6184C8.39173 13.7751 8.88073 13.9694 9.38023 14.1329C9.68998 14.2349 9.98623 14.1629 10.26 13.9934C10.6575 13.7459 10.995 13.4474 11.2102 13.0094C11.4277 12.5639 11.9227 12.3981 12.363 12.5871C12.771 12.7626 12.9832 13.2074 12.8655 13.6394C12.7327 14.1246 12.333 14.3856 11.835 14.2986C11.3932 14.2214 10.9552 14.0789 10.5067 14.2416C9.70423 14.5334 9.35173 15.1979 9.08773 15.9561C8.94373 16.3709 8.79073 16.8066 8.53273 17.1486C8.11873 17.7006 7.50973 17.9429 6.81748 17.9399ZM6.76948 6.06138C7.79473 6.06138 8.59348 6.66138 8.94148 7.64913C9.07948 8.03913 9.28648 8.40438 9.46348 8.78013C9.90073 9.71013 10.998 9.80163 11.694 9.54738C12.3105 9.32238 12.9045 9.71838 12.9187 10.3574C12.9285 10.7999 12.7012 11.1224 12.2857 11.2529C11.9182 11.3669 11.5042 11.2116 11.2792 10.8764C11.199 10.7564 11.124 10.6319 11.0347 10.5186C10.4227 9.74613 9.74323 9.54363 8.82223 9.89013C8.50123 10.0101 8.20048 10.1901 7.89898 10.3574C7.62655 10.5125 7.32485 10.6094 7.013 10.6419C6.70116 10.6743 6.38598 10.6416 6.08744 10.5459C5.78889 10.4501 5.51349 10.2934 5.2787 10.0856C5.04391 9.87785 4.85484 9.62356 4.72348 9.33888C4.00648 7.81638 5.10148 6.06138 6.76948 6.06138ZM13.917 17.9924C13.908 18.8316 13.2232 19.5149 12.4057 19.4999C11.616 19.4849 10.956 18.8046 10.9357 18.0396C10.914 17.1741 11.55 16.4699 12.4342 16.4616C13.2802 16.4534 13.9267 17.1509 13.9177 17.9916L13.917 17.9924ZM10.9455 6.01488C10.9455 5.16588 11.61 4.49238 12.4417 4.49988C13.2502 4.50738 13.9267 5.19963 13.92 6.01338C13.914 6.86913 13.2735 7.55538 12.4305 7.53963C11.4712 7.52163 10.9065 6.74838 10.9455 6.01488Z" fill="#2B5EBB"/>
</svg>

<svg width="24" height="24" viewBox="0 0 24 24" fill="none"><path fill="#2b5ebb" fill-rule="evenodd" d="M19.5 11.971c0 1.752-1.358 3.119-3.091 3.114-1.698-.006-3.077-1.41-3.068-3.125.009-1.714 1.402-3.112 3.092-3.101 1.724.011 3.068 1.375 3.067 3.112M6.817 17.94a2.265 2.265 0 0 1-2.265-2.29c.003-1.28 1.004-2.314 2.262-2.285.361.008.724.143 1.077.253.5.157.99.351 1.49.515.309.102.605.03.879-.14.398-.247.735-.546.95-.984a.873.873 0 0 1 1.153-.422c.408.176.62.62.503 1.052-.133.486-.533.747-1.031.66-.442-.078-.88-.22-1.328-.057-.803.291-1.155.956-1.42 1.714-.143.415-.296.85-.554 1.193-.414.552-1.023.794-1.716.79M6.77 6.06c1.026 0 1.824.6 2.172 1.588.138.39.345.755.522 1.131.438.93 1.535 1.022 2.231.767.616-.225 1.21.171 1.225.81.01.443-.218.765-.633.896a.91.91 0 0 1-1.007-.377c-.08-.12-.155-.244-.244-.357-.612-.773-1.292-.975-2.213-.629-.32.12-.622.3-.923.467A2.265 2.265 0 0 1 4.723 9.34c-.717-1.524.378-3.28 2.047-3.28m7.148 11.931c-.009.84-.694 1.523-1.511 1.508-.79-.015-1.45-.695-1.47-1.46-.022-.866.614-1.57 1.498-1.578.846-.009 1.493.689 1.484 1.53zM10.945 6.015c0-.85.665-1.523 1.497-1.515.808.007 1.485.7 1.478 1.513-.006.856-.646 1.542-1.49 1.527-.959-.018-1.524-.792-1.485-1.525" clip-rule="evenodd"/></svg>
